images/standarts/standart-6.svg

<svg width="25" height="24" viewBox="0 0 25 24" fill="none" xmlns="http://www.w3.org/2000/svg">
<g clip-path="url(#clip0_68_4529)">
<path d="M17.5 9.2L22.713 5.55C22.788 5.49746 22.8759 5.4665 22.9672 5.4605C23.0586 5.4545 23.1498 5.4737 23.231 5.51599C23.3122 5.55829 23.3802 5.62206 23.4276 5.70035C23.4751 5.77865 23.5001 5.86846 23.5 5.96V18.04C23.5001 18.1315 23.4751 18.2214 23.4276 18.2996C23.3802 18.3779 23.3122 18.4417 23.231 18.484C23.1498 18.5263 23.0586 18.5455 22.9672 18.5395C22.8759 18.5335 22.788 18.5025 22.713 18.45L17.5 14.8V19C17.5 19.2652 17.3946 19.5196 17.2071 19.7071C17.0196 19.8946 16.7652 20 16.5 20H2.5C2.23478 20 1.98043 19.8946 1.79289 19.7071C1.60536 19.5196 1.5 19.2652 1.5 19V5C1.5 4.73478 1.60536 4.48043 1.79289 4.29289C1.98043 4.10536 2.23478 4 2.5 4H16.5C16.7652 4 17.0196 4.10536 17.2071 4.29289C17.3946 4.48043 17.5 4.73478 17.5 5V9.2ZM5.5 8V10H7.5V8H5.5Z" fill="white"/>
</g>
<defs>
<clipPath id="clip0_68_4529">
<rect width="24" height="24" fill="white" transform="translate(0.5)"/>
</clipPath>
</defs>
</svg>

<svg width="25" height="24" fill="none" xmlns="http://www.w3.org/2000/svg"><g clip-path="url(#clip0_68_4529)"><path d="M17.5 9.2l5.213-3.65a.5.5 0 01.787.41v12.08a.5.5 0 01-.787.41L17.5 14.8V19a1 1 0 01-1 1h-14a1 1 0 01-1-1V5a1 1 0 011-1h14a1 1 0 011 1v4.2zM5.5 8v2h2V8h-2z" fill="#fff"/></g><defs><clipPath id="clip0_68_4529"><path fill="#fff" transform="translate(.5)" d="M0 0h24v24H0z"/></clipPath></defs></svg>
